X:1
T:Doney Gal
M:3/4
L:1/4
K:G
 z2 D/2D/2| B2 A/2G/2| A2 B/2A/2| G B, D-| D2 D/2D/2| B2B/2-A/2| A2B/2-A/2|\
 G B, D-| D2 z| z2 B,| D2 E| G2 B/2B/2| B2 d| B2 B/2B/2| A3/2- B/2 A|\
 G3/2- D/2E/2-D/2| G2 E| D3-| D z B,| D2 E| G2 B/2B/2| B d2| B2 B|\
 A3/2 B/2 A| G3/2D/2-E/2 D/2| G2 E| D2 B,| D2 E| G3| B d2| B3| A3/2 B/2 A|\
 G3/2 D/2E/2 D/2| G2 E| D3-| D z B,| D2 E| G3| B d2| B3| A3/2 B/2 A|\
 G3/2 D/2E/2 D/2| G2 E| G2 z|
